svg/question_triangle_outline.svg

<?xml version="1.0" encoding="UTF-8" standalone="no"?>
<!-- Created with Inkscape (http://www.inkscape.org/) -->
<svg id="svg8" xmlns:rdf="http://www.w3.org/1999/02/22-rdf-syntax-ns#" xmlns="http://www.w3.org/2000/svg" xmlns:osb="http://www.openswatchbook.org/uri/2009/osb" height="48" width="48" version="1.1" xmlns:cc="http://creativecommons.org/ns#" viewBox="0 0 12.7 12.7" xmlns:dc="http://purl.org/dc/elements/1.1/">
 <title id="title4753">UIO-icon</title>
 <metadata id="metadata5">
  <rdf:RDF>
   <cc:Work rdf:about="">
    <dc:format>image/svg+xml</dc:format>
    <dc:type rdf:resource="http://purl.org/dc/dcmitype/StillImage"/>
    <dc:title>UIO-icon</dc:title>
    <dc:creator>
     <cc:Agent>
      <dc:title>Joaquín Urbano</dc:title>
     </cc:Agent>
    </dc:creator>
    <dc:rights>
     <cc:Agent>
      <dc:title>GPL</dc:title>
     </cc:Agent>
    </dc:rights>
   </cc:Work>
  </rdf:RDF>
 </metadata>
 <g id="layer1" fill="#333" transform="translate(0,-284.3)">
  <path id="rect883" d="m24 4-20 40h40zm0 1.1484 19.162 38.338h-38.328zm0.084 13.133c-1.869 0-3.3879 0.51407-4.5586 1.541-1.1604 1.0167-1.7509 2.3559-1.7715 4.0195h2.8496c3e-8 -0.93452 0.31837-1.6779 0.95508-2.2324 0.6367-0.55455 1.4779-0.83203 2.5254-0.83203 1.0783 0 1.9 0.30766 2.4648 0.92383 0.56482 0.6059 0.84766 1.4491 0.84766 2.5273-3e-8 1.1194-0.43034 2.167-1.293 3.1426l-2.0195 2.0781c-0.79075 0.86263-1.3136 1.6488-1.5703 2.3574-0.25674 0.70859-0.39548 1.6744-0.41602 2.8965h2.8496c0-1.561 0.37533-2.758 1.125-3.5898l1.677-1.664c1.6636-1.7458 2.4961-3.5173 2.4961-5.3145 0-1.8177-0.54425-3.244-1.6328-4.2812-1.078-1.047-2.588-1.572-4.529-1.572zm-0.22266 0.50977h0.32031c3.0666 0.20657 5.3023 1.4646 5.5469 5.2402v0.32031c-0.18411 3.227-2.3651 4.4582-3.9316 6.3027l-0.21289 0.23828c-1.0409 1.0988-1.0652 2.1981-1.1348 3.2969h-1.8379c-0.040809-2.1803 0.77021-3.2961 1.7168-4.2422l0.21484-0.23828c3.0536-2.6147 3.4303-4.1029 3.3555-5.4004v-0.32031c-0.1-2.183-1.043-3.661-3.677-3.723h-0.32031c-1.8585 0.15726-3.3605 0.83793-3.8105 3.0664l-1.8008-0.001953c0.49125-2.922 2.4147-4.3667 5.5723-4.5391zm-0.207 19.162c-0.55455 0-0.97613 0.15821-1.2637 0.47656-0.27727 0.30808-0.41602 0.69413-0.41602 1.1562-3e-8 0.46212 0.13874 0.84621 0.41602 1.1543 0.28754 0.29781 0.70912 0.44727 1.2637 0.44727 0.55455 0 0.97417-0.14945 1.2617-0.44727 0.28754-0.30808 0.43164-0.69217 0.43164-1.1543 0-0.46212-0.1441-0.84817-0.43164-1.1562-0.28754-0.31835-0.70717-0.47656-1.2617-0.47656zm0.001953 0.50781c0.38042 0 0.66798 0.10779 0.86523 0.32617 0.19725 0.21134 0.29687 0.47596 0.29688 0.79297 0 0.31701-0.099623 0.58163-0.29688 0.79297-0.19725 0.20429-0.48482 0.30664-0.86523 0.30664-0.38042 0-0.66994-0.10235-0.86719-0.30664-0.19021-0.21134-0.28516-0.47596-0.28516-0.79297-4e-8 -0.31701 0.094949-0.58163 0.28516-0.79297 0.19725-0.21839 0.48677-0.32617 0.86719-0.32617z" fill-rule="evenodd" transform="matrix(.26458 0 0 .26458 0 284.3)"/>
 </g>
</svg>

<svg width="48" height="48" viewBox="0 0 48 48" fill="none" xmlns="http://www.w3.org/2000/svg">
<path fill-rule="evenodd" clip-rule="evenodd" d="M23.9997 4L4 43.9995H43.9995L23.9997 4ZM23.9997 5.14839L43.1615 43.4859H4.83399L23.9997 5.14839ZM24.0837 18.2812C22.2148 18.2812 20.6959 18.7953 19.5252 19.8222C18.3648 20.8389 17.7743 22.1781 17.7537 23.8417H20.6033C20.6033 22.9071 20.9217 22.1638 21.5584 21.6093C22.1951 21.0547 23.0362 20.7773 24.0837 20.7773C25.162 20.7773 25.9837 21.0849 26.5485 21.7011C27.1133 22.307 27.3961 23.1502 27.3961 24.2283C27.3961 25.3477 26.9658 26.3953 26.1032 27.3709L24.0837 29.449C23.2929 30.3116 22.7701 31.0978 22.5134 31.8064C22.2567 32.5149 22.1179 33.4807 22.0974 34.7028H24.947C24.947 33.1418 25.3223 31.9448 26.0719 31.1131L27.7489 29.4491C29.4125 27.7033 30.245 25.9318 30.245 24.1346C30.245 22.317 29.7007 20.8907 28.6122 19.8535C27.5342 18.8065 26.0242 18.2815 24.0833 18.2815L24.0837 18.2812ZM23.8611 18.791H24.1814C27.248 18.9976 29.4836 20.2556 29.7282 24.0311V24.3514C29.5441 27.5784 27.3632 28.8096 25.7967 30.654L25.5838 30.8923C24.5429 31.9911 24.5186 33.0904 24.449 34.1892H22.6111C22.5703 32.0089 23.3813 30.8931 24.3279 29.947L24.5427 29.7088C27.5963 27.0941 27.973 25.6059 27.8982 24.3084V23.9881C27.7982 21.8051 26.8552 20.3272 24.2212 20.2652H23.9009C22.0425 20.4224 20.5405 21.1031 20.0905 23.3315L18.2897 23.3296C18.781 20.4076 20.7044 18.9629 23.8619 18.7905L23.8611 18.791ZM23.6541 37.9527C23.0996 37.9527 22.678 38.111 22.3904 38.4293C22.1131 38.7374 21.9744 39.1234 21.9744 39.5855C21.9744 40.0476 22.1131 40.4317 22.3904 40.7398C22.6779 41.0376 23.0995 41.187 23.6541 41.187C24.2086 41.187 24.6283 41.0376 24.9158 40.7398C25.2033 40.4317 25.3474 40.0476 25.3474 39.5855C25.3474 39.1234 25.2033 38.7373 24.9158 38.4293C24.6282 38.111 24.2086 37.9527 23.6541 37.9527ZM23.656 38.4605C24.0365 38.4605 24.324 38.5683 24.5213 38.7867C24.7185 38.9981 24.8181 39.2627 24.8181 39.5797C24.8181 39.8967 24.7185 40.1613 24.5213 40.3726C24.324 40.5769 24.0365 40.6793 23.656 40.6793C23.2756 40.6793 22.9861 40.5769 22.7889 40.3726C22.5987 40.1613 22.5037 39.8967 22.5037 39.5797C22.5037 39.2627 22.5987 38.9981 22.7889 38.7867C22.9861 38.5683 23.2756 38.4605 23.656 38.4605Z" fill="#333333"/>
</svg>
